app/dist/common/images/elys-game-technology.svg

<svg height="18" width="18" xmlns="http://www.w3.org/2000/svg" xmlns:xlink="http://www.w3.org/1999/xlink"><linearGradient id="a" gradientUnits="userSpaceOnUse" x1="3.35" x2="21.9" y1="3.12" y2="24.43"><stop offset="0" stop-color="#1a1e21"/><stop offset="1" stop-color="#06060a"/></linearGradient><path d="m0 0h18v18h-18z" fill="url(#a)"/><path d="m5.4 9 4.8-5 4.8 5-4.8 5z" fill="#818286"/><path d="m3 9 4.8-5 4.8 5-4.8 5z" fill="#f6821f"/><path d="m5.4 9 3.6-3.75 3.6 3.75-3.6 3.75z" fill="#14161a"/><path d="m7.8 6.5 1.2-1.26 1 1.04v2.47l-2.2-2.26zm2.4 5-1.2 1.25-1-1.05v-2.47z" fill="#b66111"/></svg>

<!-- by TradingView --><svg xmlns="http://www.w3.org/2000/svg" width="18" height="18"><path d="M0 0h18v18H0V0z" fill="url(#axm14mmji)"/><path d="M5.4 9l4.8-5L15 9l-4.8 5-4.8-5z" fill="#818286"/><path d="M3 9l4.8-5 4.8 5-4.8 5L3 9z" fill="#F6821F"/><path d="M5.4 9L9 5.25 12.6 9 9 12.75 5.4 9z" fill="#14161A"/><path d="M7.8 6.5L9 5.24l1 1.04v2.47L7.8 6.49v.01zm2.4 5L9 12.75 8 11.7V9.23l2.2 2.27z" fill="#B66111"/><defs><linearGradient id="axm14mmji" x1="3.35" y1="3.12" x2="21.9" y2="24.43" gradientUnits="userSpaceOnUse"><stop stop-color="#1A1E21"/><stop offset="1" stop-color="#06060A"/></linearGradient></defs></svg>
